static/img/kroki/9a95aa5490f9660a454ddd0660ee0a90.svg

<?xml version="1.0" encoding="us-ascii" standalone="no"?><svg xmlns="http://www.w3.org/2000/svg" xmlns:xlink="http://www.w3.org/1999/xlink" contentStyleType="text/css" height="352px" preserveAspectRatio="none" style="width:815px;height:352px;" version="1.1" viewBox="0 0 815 352" width="815px" zoomAndPan="magnify"><defs/><g><!--class aws_sagemaker_experiment--><g id="elem_aws_sagemaker_experiment"><rect codeLine="22" fill="#3D176E" height="39.7891" id="aws_sagemaker_experiment" rx="2.5" ry="2.5" style="stroke:#000D19;stroke-width:0.5;" width="282" x="337" y="7"/><ellipse cx="352" cy="26.8945" fill="#ADD1B2" rx="11" ry="11" style="stroke:#181818;stroke-width:1.0;"/><path d="M354.9688,32.5352 Q354.3906,32.832 353.75,32.9727 Q353.1094,33.1289 352.4063,33.1289 Q349.9063,33.1289 348.5781,31.4883 Q347.2656,29.832 347.2656,26.707 Q347.2656,23.582 348.5781,21.9258 Q349.9063,20.2695 352.4063,20.2695 Q353.1094,20.2695 353.75,20.4258 Q354.4063,20.582 354.9688,20.8789 L354.9688,23.5977 Q354.3438,23.0195 353.75,22.7539 Q353.1563,22.4727 352.5313,22.4727 Q351.1875,22.4727 350.5,23.5508 Q349.8125,24.6133 349.8125,26.707 Q349.8125,28.8008 350.5,29.8789 Q351.1875,30.9414 352.5313,30.9414 Q353.1563,30.9414 353.75,30.6758 Q354.3438,30.3945 354.9688,29.8164 L354.9688,32.5352 Z " fill="#000000"/><text fill="#D9B8FF" font-family="Helvetica" font-size="17" lengthAdjust="spacing" textLength="240" x="371" y="32.7798">aws_sagemaker_experiment</text></g><!--class aws_sagemaker_processing_job--><g id="elem_aws_sagemaker_processing_job"><rect codeLine="24" fill="#3D176E" height="39.7891" id="aws_sagemaker_processing_job" rx="2.5" ry="2.5" style="stroke:#000D19;stroke-width:0.5;" width="306" x="7" y="206.58"/><ellipse cx="22" cy="226.4745" fill="#ADD1B2" rx="11" ry="11" style="stroke:#181818;stroke-width:1.0;"/><path d="M24.9688,232.1152 Q24.3906,232.412 23.75,232.5527 Q23.1094,232.7089 22.4063,232.7089 Q19.9063,232.7089 18.5781,231.0683 Q17.2656,229.412 17.2656,226.287 Q17.2656,223.162 18.5781,221.5058 Q19.9063,219.8495 22.4063,219.8495 Q23.1094,219.8495 23.75,220.0058 Q24.4063,220.162 24.9688,220.4589 L24.9688,223.1777 Q24.3438,222.5995 23.75,222.3339 Q23.1563,222.0527 22.5313,222.0527 Q21.1875,222.0527 20.5,223.1308 Q19.8125,224.1933 19.8125,226.287 Q19.8125,228.3808 20.5,229.4589 Q21.1875,230.5214 22.5313,230.5214 Q23.1563,230.5214 23.75,230.2558 Q24.3438,229.9745 24.9688,229.3964 L24.9688,232.1152 Z " fill="#000000"/><text fill="#D9B8FF" font-family="Helvetica" font-size="17" lengthAdjust="spacing" textLength="264" x="41" y="232.3598">aws_sagemaker_processing_job</text></g><!--class aws_sagemaker_training_job--><g id="elem_aws_sagemaker_training_job"><rect codeLine="26" fill="#3D176E" height="39.7891" id="aws_sagemaker_training_job" rx="2.5" ry="2.5" style="stroke:#000D19;stroke-width:0.5;" width="285" x="223.5" y="306.37"/><ellipse cx="238.5" cy="326.2645" fill="#ADD1B2" rx="11" ry="11" style="stroke:#181818;stroke-width:1.0;"/><path d="M241.4688,331.9052 Q240.8906,332.202 240.25,332.3427 Q239.6094,332.4989 238.9063,332.4989 Q236.4063,332.4989 235.0781,330.8583 Q233.7656,329.202 233.7656,326.077 Q233.7656,322.952 235.0781,321.2958 Q236.4063,319.6395 238.9063,319.6395 Q239.6094,319.6395 240.25,319.7958 Q240.9063,319.952 241.4688,320.2489 L241.4688,322.9677 Q240.8438,322.3895 240.25,322.1239 Q239.6563,321.8427 239.0313,321.8427 Q237.6875,321.8427 237,322.9208 Q236.3125,323.9833 236.3125,326.077 Q236.3125,328.1708 237,329.2489 Q237.6875,330.3114 239.0313,330.3114 Q239.6563,330.3114 240.25,330.0458 Q240.8438,329.7645 241.4688,329.1864 L241.4688,331.9052 Z " fill="#000000"/><text fill="#D9B8FF" font-family="Helvetica" font-size="17" lengthAdjust="spacing" textLength="243" x="257.5" y="332.1498">aws_sagemaker_training_job</text></g><!--class aws_sagemaker_transform_job--><g id="elem_aws_sagemaker_transform_job"><rect codeLine="28" fill="#3D176E" height="39.7891" id="aws_sagemaker_transform_job" rx="2.5" ry="2.5" style="stroke:#000D19;stroke-width:0.5;" width="302" x="419" y="206.58"/><ellipse cx="434" cy="226.4745" fill="#ADD1B2" rx="11" ry="11" style="stroke:#181818;stroke-width:1.0;"/><path d="M436.9688,232.1152 Q436.3906,232.412 435.75,232.5527 Q435.1094,232.7089 434.4063,232.7089 Q431.9063,232.7089 430.5781,231.0683 Q429.2656,229.412 429.2656,226.287 Q429.2656,223.162 430.5781,221.5058 Q431.9063,219.8495 434.4063,219.8495 Q435.1094,219.8495 435.75,220.0058 Q436.4063,220.162 436.9688,220.4589 L436.9688,223.1777 Q436.3438,222.5995 435.75,222.3339 Q435.1563,222.0527 434.5313,222.0527 Q433.1875,222.0527 432.5,223.1308 Q431.8125,224.1933 431.8125,226.287 Q431.8125,228.3808 432.5,229.4589 Q433.1875,230.5214 434.5313,230.5214 Q435.1563,230.5214 435.75,230.2558 Q436.3438,229.9745 436.9688,229.3964 L436.9688,232.1152 Z " fill="#000000"/><text fill="#D9B8FF" font-family="Helvetica" font-size="17" lengthAdjust="spacing" textLength="260" x="453" y="232.3598">aws_sagemaker_transform_job</text></g><!--class aws_sagemaker_trial--><g id="elem_aws_sagemaker_trial"><rect codeLine="30" fill="#3D176E" height="39.7891" id="aws_sagemaker_trial" rx="2.5" ry="2.5" style="stroke:#000D19;stroke-width:0.5;" width="219" x="266.5" y="106.79"/><ellipse cx="281.5" cy="126.6845" fill="#ADD1B2" rx="11" ry="11" style="stroke:#181818;stroke-width:1.0;"/><path d="M284.4688,132.3252 Q283.8906,132.622 283.25,132.7627 Q282.6094,132.9189 281.9063,132.9189 Q279.4063,132.9189 278.0781,131.2783 Q276.7656,129.622 276.7656,126.497 Q276.7656,123.372 278.0781,121.7158 Q279.4063,120.0595 281.9063,120.0595 Q282.6094,120.0595 283.25,120.2158 Q283.9063,120.372 284.4688,120.6689 L284.4688,123.3877 Q283.8438,122.8095 283.25,122.5439 Q282.6563,122.2627 282.0313,122.2627 Q280.6875,122.2627 280,123.3408 Q279.3125,124.4033 279.3125,126.497 Q279.3125,128.5908 280,129.6689 Q280.6875,130.7314 282.0313,130.7314 Q282.6563,130.7314 283.25,130.4658 Q283.8438,130.1845 284.4688,129.6064 L284.4688,132.3252 Z " fill="#000000"/><text fill="#D9B8FF" font-family="Helvetica" font-size="17" lengthAdjust="spacing" textLength="177" x="300.5" y="132.5698">aws_sagemaker_trial</text></g><!--link aws_sagemaker_experiment to aws_sagemaker_processing_job--><g id="link_aws_sagemaker_experiment_aws_sagemaker_processing_job"><path codeLine="32" d="M382.25,47.26 C338.7,59.34 288.26,78.2 249,106.79 C214.46,131.96 187.3,174.36 172.47,201.09 " fill="none" id="aws_sagemaker_experiment-to-aws_sagemaker_processing_job" style="stroke:#1A83AF;stroke-width:2.0;"/><polygon fill="#1A83AF" points="169.67,205.21,177.4844,199.2154,172.0592,200.8178,170.4569,195.3926,169.67,205.21" style="stroke:#1A83AF;stroke-width:2.0;"/></g><!--link aws_sagemaker_experiment to aws_sagemaker_training_job--><g id="link_aws_sagemaker_experiment_aws_sagemaker_training_job"><path codeLine="33" d="M536.52,47.17 C633,81.97 808.15,159.79 738,246.37 C709.61,281.42 605.55,301.53 514.68,312.66 " fill="none" id="aws_sagemaker_experiment-to-aws_sagemaker_training_job" style="stroke:#1A83AF;stroke-width:2.0;"/><polygon fill="#1A83AF" points="509.99,313.35,519.4044,316.2428,514.954,312.7509,518.4459,308.3004,509.99,313.35" style="stroke:#1A83AF;stroke-width:2.0;"/></g><!--link aws_sagemaker_experiment to aws_sagemaker_transform_job--><g id="link_aws_sagemaker_experiment_aws_sagemaker_transform_job"><path codeLine="34" d="M486.99,47.2 C503.82,83.35 540.06,161.19 558.59,200.97 " fill="none" id="aws_sagemaker_experiment-to-aws_sagemaker_transform_job" style="stroke:#1A83AF;stroke-width:2.0;"/><polygon fill="#1A83AF" points="560.97,205.09,560.7871,195.2428,558.8548,200.5594,553.5382,198.6272,560.97,205.09" style="stroke:#1A83AF;stroke-width:2.0;"/></g><!--link aws_sagemaker_experiment to aws_sagemaker_trial--><g id="link_aws_sagemaker_experiment_aws_sagemaker_trial"><path codeLine="35" d="M457.85,47.22 C441.36,63.02 417.99,85.43 400.44,102.26 " fill="none" id="aws_sagemaker_experiment-to-aws_sagemaker_trial" style="stroke:#1A83AF;stroke-width:2.0;"/><polygon fill="#1A83AF" points="397.11,105.41,406.3787,102.0796,400.7232,101.9539,400.8489,96.2984,397.11,105.41" style="stroke:#1A83AF;stroke-width:2.0;"/></g><!--link aws_sagemaker_processing_job to aws_sagemaker_training_job--><g id="link_aws_sagemaker_processing_job_aws_sagemaker_training_job"><path codeLine="36" d="M200.7,246.8 C235.12,263.14 284.41,286.54 320.21,303.53 " fill="none" id="aws_sagemaker_processing_job-to-aws_sagemaker_training_job" style="stroke:#1A83AF;stroke-width:2.0;"/><polygon fill="#1A83AF" points="324.39,305.99,317.9748,298.517,319.8731,303.8459,314.5442,305.7441,324.39,305.99" style="stroke:#1A83AF;stroke-width:2.0;"/></g><!--link aws_sagemaker_trial to aws_sagemaker_processing_job--><g id="link_aws_sagemaker_trial_aws_sagemaker_processing_job"><path codeLine="37" d="M333.33,147.01 C297.23,163.35 245.55,186.75 208.02,203.74 " fill="none" id="aws_sagemaker_trial-to-aws_sagemaker_processing_job" style="stroke:#1A83AF;stroke-width:2.0;"/><polygon fill="#1A83AF" points="203.59,206.2,213.4387,206.1429,208.1472,204.1428,210.1472,198.8513,203.59,206.2" style="stroke:#1A83AF;stroke-width:2.0;"/></g><!--link aws_sagemaker_trial to aws_sagemaker_training_job--><g id="link_aws_sagemaker_trial_aws_sagemaker_training_job"><path codeLine="38" d="M375.02,146.99 C373.2,182.99 369.29,260.34 367.26,300.27 " fill="none" id="aws_sagemaker_trial-to-aws_sagemaker_training_job" style="stroke:#1A83AF;stroke-width:2.0;"/><polygon fill="#1A83AF" points="366.98,304.88,371.4383,296.098,367.2375,299.8866,363.4489,295.6859,366.98,304.88" style="stroke:#1A83AF;stroke-width:2.0;"/></g><!--link aws_sagemaker_trial to aws_sagemaker_transform_job--><g id="link_aws_sagemaker_trial_aws_sagemaker_transform_job"><path codeLine="39" d="M414.33,147.01 C446.61,163.28 492.78,186.55 526.46,203.53 " fill="none" id="aws_sagemaker_trial-to-aws_sagemaker_transform_job" style="stroke:#1A83AF;stroke-width:2.0;"/><polygon fill="#1A83AF" points="530.75,206.2,524.4987,198.5894,526.2807,203.9582,520.9119,205.7402,530.75,206.2" style="stroke:#1A83AF;stroke-width:2.0;"/></g><!--SRC=[fP91Jy9048Nl_8fDE9DGYG8Naqf2z4ACU3E6JBkpiBQxsymk8Xh_kmLKbfQsfbxtVPrvxtLMaYD3bRajKwWY9DknYTGP42WM4fdDnAI6M5S848DXKPmQxHg16IXajvY-efCn58d7bOmJZTQo2q-wWJXPabbhVXZl2BJD9TJEeoOfM1iwHp9QE_JCy74q4g985eTs1pmONc49CyIHlf5-ly-3SH5fN5MR-vUOotTaWL_Qp3WisIojs5ErBdU4Px8Kz4Ulz7WFd4kzP9VUsyF14scaa_Vv2hZPx6W1gVNNM8U4ncqpd9HIuNZ4nV0iV5S5nxlc66pimi8I5IH82tpBaAJABuDzT3xF8XcPEB-mtE7YnKILM7vaKly1qbOOKWsKX7IlLfhjFNM3S3G8fy-zwrg_hKRuMTeEEEPiEI7le5Fx9ze5E9JRjh_6h_-p-QIrBm00]--></g></svg>

<svg xmlns="http://www.w3.org/2000/svg" width="815" height="352" preserveAspectRatio="none" style="width:815px;height:352px"><rect width="282" height="39.789" x="337" y="7" fill="#3D176E" rx="2.5" ry="2.5" style="stroke:#000d19;stroke-width:.5"/><circle cx="352" cy="26.895" r="11" fill="#ADD1B2" style="stroke:#181818;stroke-width:1"/><path d="M354.969 32.535q-.578.297-1.219.438-.64.156-1.344.156-2.5 0-3.828-1.64-1.312-1.657-1.312-4.782t1.312-4.781q1.328-1.656 3.828-1.656.703 0 1.344.156.656.156 1.219.453v2.719q-.625-.578-1.219-.844-.594-.281-1.219-.281-1.344 0-2.031 1.078-.688 1.062-.688 3.156 0 2.094.688 3.172.688 1.062 2.031 1.062.625 0 1.219-.265.594-.281 1.219-.86v2.72Z"/><text x="371" y="32.78" fill="#D9B8FF" font-family="Helvetica" font-size="17" textLength="240">aws_sagemaker_experiment</text><rect width="306" height="39.789" x="7" y="206.58" fill="#3D176E" rx="2.5" ry="2.5" style="stroke:#000d19;stroke-width:.5"/><circle cx="22" cy="226.475" r="11" fill="#ADD1B2" style="stroke:#181818;stroke-width:1"/><path d="M24.969 232.115q-.578.297-1.219.438-.64.156-1.344.156-2.5 0-3.828-1.64-1.312-1.657-1.312-4.782t1.312-4.781q1.328-1.656 3.828-1.656.703 0 1.344.156.656.156 1.219.453v2.719q-.625-.578-1.219-.844-.594-.281-1.219-.281-1.343 0-2.031 1.078-.688 1.062-.688 3.156 0 2.094.688 3.172.688 1.062 2.031 1.062.625 0 1.219-.265.594-.281 1.219-.86v2.72Z"/><text x="41" y="232.36" fill="#D9B8FF" font-family="Helvetica" font-size="17" textLength="264">aws_sagemaker_processing_job</text><rect width="285" height="39.789" x="223.5" y="306.37" fill="#3D176E" rx="2.5" ry="2.5" style="stroke:#000d19;stroke-width:.5"/><circle cx="238.5" cy="326.264" r="11" fill="#ADD1B2" style="stroke:#181818;stroke-width:1"/><path d="M241.469 331.905q-.578.297-1.219.438-.64.156-1.344.156-2.5 0-3.828-1.64-1.312-1.657-1.312-4.782t1.312-4.781q1.328-1.656 3.828-1.656.703 0 1.344.156.656.156 1.219.453v2.719q-.625-.579-1.219-.844-.594-.281-1.219-.281-1.344 0-2.031 1.078-.688 1.062-.688 3.156 0 2.094.688 3.172.688 1.062 2.031 1.062.625 0 1.219-.265.594-.281 1.219-.86v2.72Z"/><text x="257.5" y="332.15" fill="#D9B8FF" font-family="Helvetica" font-size="17" textLength="243">aws_sagemaker_training_job</text><rect width="302" height="39.789" x="419" y="206.58" fill="#3D176E" rx="2.5" ry="2.5" style="stroke:#000d19;stroke-width:.5"/><circle cx="434" cy="226.475" r="11" fill="#ADD1B2" style="stroke:#181818;stroke-width:1"/><path d="M436.969 232.115q-.578.297-1.219.438-.64.156-1.344.156-2.5 0-3.828-1.64-1.312-1.657-1.312-4.782t1.312-4.781q1.328-1.656 3.828-1.656.703 0 1.344.156.656.156 1.219.453v2.719q-.625-.578-1.219-.844-.594-.281-1.219-.281-1.344 0-2.031 1.078-.688 1.062-.688 3.156 0 2.094.688 3.172.688 1.062 2.031 1.062.625 0 1.219-.265.594-.281 1.219-.86v2.72Z"/><text x="453" y="232.36" fill="#D9B8FF" font-family="Helvetica" font-size="17" textLength="260">aws_sagemaker_transform_job</text><rect width="219" height="39.789" x="266.5" y="106.79" fill="#3D176E" rx="2.5" ry="2.5" style="stroke:#000d19;stroke-width:.5"/><circle cx="281.5" cy="126.684" r="11" fill="#ADD1B2" style="stroke:#181818;stroke-width:1"/><path d="M284.469 132.325q-.578.297-1.219.438-.64.156-1.344.156-2.5 0-3.828-1.64-1.312-1.657-1.312-4.782t1.312-4.781q1.328-1.656 3.828-1.656.703 0 1.344.156.656.156 1.219.453v2.719q-.625-.579-1.219-.844-.594-.281-1.219-.281-1.344 0-2.031 1.078-.688 1.062-.688 3.156 0 2.094.688 3.172.688 1.062 2.031 1.062.625 0 1.219-.265.594-.281 1.219-.86v2.72Z"/><text x="300.5" y="132.57" fill="#D9B8FF" font-family="Helvetica" font-size="17" textLength="177">aws_sagemaker_trial</text><path fill="none" d="M382.25 47.26C338.7 59.34 288.26 78.2 249 106.79c-34.54 25.17-61.7 67.57-76.53 94.3" style="stroke:#1a83af;stroke-width:2"/><path fill="#1A83AF" d="m169.67 205.21 7.814-5.995-5.425 1.603-1.602-5.425-.787 9.817z" style="stroke:#1a83af;stroke-width:2"/><path fill="none" d="M536.52 47.17C633 81.97 808.15 159.79 738 246.37c-28.39 35.05-132.45 55.16-223.32 66.29" style="stroke:#1a83af;stroke-width:2"/><path fill="#1A83AF" d="m509.99 313.35 9.414 2.893-4.45-3.492 3.492-4.45-8.456 5.049z" style="stroke:#1a83af;stroke-width:2"/><path fill="none" d="M486.99 47.2c16.83 36.15 53.07 113.99 71.6 153.77" style="stroke:#1a83af;stroke-width:2"/><path fill="#1A83AF" d="m560.97 205.09-.183-9.847-1.932 5.316-5.317-1.932 7.432 6.463z" style="stroke:#1a83af;stroke-width:2"/><path fill="none" d="M457.85 47.22c-16.49 15.8-39.86 38.21-57.41 55.04" style="stroke:#1a83af;stroke-width:2"/><path fill="#1A83AF" d="m397.11 105.41 9.269-3.33-5.656-.126.126-5.656-3.739 9.112z" style="stroke:#1a83af;stroke-width:2"/><path fill="none" d="M200.7 246.8c34.42 16.34 83.71 39.74 119.51 56.73" style="stroke:#1a83af;stroke-width:2"/><path fill="#1A83AF" d="m324.39 305.99-6.415-7.473 1.898 5.329-5.329 1.898 9.846.246z" style="stroke:#1a83af;stroke-width:2"/><path fill="none" d="M333.33 147.01c-36.1 16.34-87.78 39.74-125.31 56.73" style="stroke:#1a83af;stroke-width:2"/><path fill="#1A83AF" d="m203.59 206.2 9.849-.057-5.292-2 2-5.292-6.557 7.349z" style="stroke:#1a83af;stroke-width:2"/><path fill="none" d="M375.02 146.99c-1.82 36-5.73 113.35-7.76 153.28" style="stroke:#1a83af;stroke-width:2"/><path fill="#1A83AF" d="m366.98 304.88 4.458-8.782-4.2 3.789-3.79-4.201 3.532 9.194z" style="stroke:#1a83af;stroke-width:2"/><path fill="none" d="M414.33 147.01c32.28 16.27 78.45 39.54 112.13 56.52" style="stroke:#1a83af;stroke-width:2"/><path fill="#1A83AF" d="m530.75 206.2-6.251-7.61 1.782 5.368-5.37 1.782 9.839.46z" style="stroke:#1a83af;stroke-width:2"/></svg>
